images/ico-03.svg

<svg width="21" height="20" viewBox="0 0 21 20" fill="none" xmlns="http://www.w3.org/2000/svg">
<path d="M20.681 4.74178C20.3459 3.78568 19.7574 2.92319 18.9789 2.24754C18.1998 1.57127 17.2627 1.11021 16.2689 0.91425C15.8945 0.840412 15.5095 0.802979 15.1246 0.802979C14.0018 0.802979 12.9098 1.12048 11.9667 1.72117C11.3989 2.0828 10.9001 2.53635 10.4893 3.06081C10.0786 2.53736 9.58015 2.08466 9.01299 1.72375C8.07031 1.12393 6.97903 0.806881 5.85707 0.806881C5.85701 0.806881 5.85709 0.806881 5.85705 0.806881C4.9222 0.806881 3.98393 1.03779 3.14395 1.47457C2.30459 1.91104 1.57663 2.54608 1.03884 3.31105C0.487795 4.09482 0.152136 4.97245 0.0411641 5.91955C-0.0560003 6.74898 0.0190384 7.63937 0.264244 8.56597C0.74998 10.4015 1.82511 12.0758 2.64151 13.1571C4.41661 15.5081 6.85732 17.6422 10.1031 19.6812L10.4908 19.9248L10.8786 19.6812C14.871 17.1731 17.6577 14.5252 19.3978 11.586C20.3986 9.89557 20.9199 8.38965 20.9917 6.98216C21.0317 6.19775 20.9271 5.44397 20.681 4.74178ZM10.4909 18.2001C7.59111 16.3328 5.40116 14.3927 3.80502 12.2786C3.06735 11.3016 2.09879 9.79969 1.67362 8.19303C1.47541 7.44399 1.41334 6.73618 1.48915 6.0892C1.57161 5.38546 1.82134 4.73288 2.23146 4.14956C2.63547 3.57491 3.18359 3.09719 3.81653 2.76807C4.44971 2.43882 5.15531 2.2648 5.85707 2.2648C6.7013 2.2648 7.52195 2.50306 8.23027 2.95378C8.92071 3.39312 9.47578 4.01288 9.83541 4.74605L10.4906 6.08157L11.1446 4.74549C11.5039 4.01144 12.059 3.39087 12.7498 2.95089C13.4586 2.4995 14.2797 2.26092 15.1246 2.26092C15.415 2.26092 15.7051 2.28909 15.9868 2.34464C16.7316 2.4915 17.4358 2.83865 18.0233 3.34857C18.6105 3.85828 19.0538 4.5068 19.3052 5.22402C19.4884 5.74683 19.566 6.31339 19.5357 6.90794C19.4762 8.0738 19.0208 9.36106 18.1433 10.8432C16.5801 13.4836 14.0742 15.8934 10.4909 18.2001Z" fill="black"/>
</svg>

<svg width="21" height="20" viewBox="0 0 21 20" fill="none" xmlns="http://www.w3.org/2000/svg"><path d="M20.681 4.742a5.895 5.895 0 0 0-1.702-2.494 5.882 5.882 0 0 0-2.71-1.334 5.927 5.927 0 0 0-1.144-.111 5.868 5.868 0 0 0-4.636 2.258A5.868 5.868 0 0 0 5.857.807 5.919 5.919 0 0 0 1.04 3.31 5.627 5.627 0 0 0 .04 5.92c-.097.829-.022 1.72.223 2.646.486 1.835 1.561 3.51 2.378 4.591 1.775 2.351 4.215 4.485 7.461 6.524l.388.244.388-.244c3.992-2.508 6.779-5.156 8.519-8.095 1-1.69 1.522-3.196 1.594-4.604a5.841 5.841 0 0 0-.311-2.24zM10.491 18.2c-2.9-1.867-5.09-3.807-6.686-5.921-.738-.977-1.706-2.48-2.131-4.086-.199-.749-.26-1.457-.185-2.104a4.184 4.184 0 0 1 .742-1.94 4.455 4.455 0 0 1 1.586-1.38 4.412 4.412 0 0 1 4.414.186c.69.438 1.245 1.058 1.604 1.791l.656 1.336.654-1.337a4.444 4.444 0 0 1 1.605-1.794 4.413 4.413 0 0 1 3.237-.606 4.422 4.422 0 0 1 2.036 1.004 4.436 4.436 0 0 1 1.282 1.875c.183.523.261 1.09.23 1.684-.059 1.166-.514 2.453-1.392 3.935-1.563 2.64-4.069 5.05-7.652 7.357z" fill="#000"/></svg>
